X: 1
T: Fisher's Hornpipe
T: Fischers Hornpipe
O: James Fishar 1778
B: John Greenwood (manuscript copybook) ca. 1785
R: hornpipe
Z: 2011 John Chambers <jc:trillian.mit.edu>
M: C|
L: 1/8
K: D
"A"|:\
"D"dAF[AD] "G"GBAG | "D"FEDF "G"GBAG | "D"FDFD "G"GEGE | "D"FDFD "A"E[AC][BB,][cA,] |
"D"dAF[AD] "G"GBAG | "D"FAFA "G"GBAG | "D"FdBg "A"fdec | "D"d2d2 d4 :|
"B"|:\
"A"ecAc ecge | "D"fdAd fdaf | "A"ecAc ecge | "E7"edcB "A"A4 |
"G"BGDG BGdB | "D"AFDF AFdA | "G"BGdB "A"AFGE | "D"D2D2 D4 :|
